X:48
%%score 1 2
%%pagewidth 800pt
%%vocalfont Baskerville10Pro 10
T:In praise of dairy
M:6/8
L:1/8
K:G
V:1 clef-treble
V:2 clef-bass octave=-1
V:1
B,|EFG FGA|GFE [^DF]2B,|GAB ABG & B,3 ^D2E|FE^D E2 & C2B, G,2||
w:In praise of a dai-ry I pur-pose to sing, But all things in order;* first God save the King!
V:2
z|[EG]3[^DB]3|[EB]3B,3|E2G F2E|A,2B, E,2||
V:1
B|Bd^c B2F & =D3-D2E|Bd^c B2F & F3-F2^C|Bd^c Bcd & F3 DEF|[Ge][Fd][E^c] [DB]2d|
w:And~the Queen I may say; That ev'-ry May-day, Has ma-ny fair dai-ry-maids all fine and gay: As-
V:2
z|[B,F]3-[B,F]2[^C^A]|[DB]3-[DB]2[E^A]|[DB]3 [GB]3|[EB]2[F^A] [B,B]2z|
V:1
BAG [DA]FD & D3 x3|GFE [^DF]2B, & B,3x3|GAB ABG & B,3 ^D2E|FE^D [G,E]2 & C2B, x2||
w:sist me, fair damsels,* to finish* my theme, In spring* my fan-cy with strawberry** cream.
V:2
[G,G]3[DF]3|[EG]3[B,B]2z|E2G F2E|A,2B, E,2||

